X: 5614
T: Butter And Peas
R: reel
M: 4/4
K: Gmajor
EAAG ABAG|FDFA dcBA|G2 BG EcAG|FDEF G2
DG|G2 BG EcAG|(3FED FA dcBA|G2 BG EcAG|FDEF G2||
DG|B2 dB cd (3efg|dedB cBAG|(3BdB dB cd (3efg|dcBA G2
DG|B2 dB cd (3efg|dedB cBAG|(3Bcd ef gedB|cBAF GFED||

